X:1
T:Title
%%score { 1 | 2 }
L:1/8
Q:1/4=100
M:2/4
K:Eb
V:1 treble nm="Grand Piano"
V:2 bass 
V:1
 Bc B>G | [DF][CE] [CE]2 | [DF][FA] [FA]>[FA] | [EG][GB] [GB]2 | [GB][Ac] [GB]>[B,EG] | %5
w: W.~F.~Sherwin * * *|||||
 [A,DF][G,E] [G,E]2 | [B,CF][CFA] [B,EG][A,B,F] | [G,B,E]4 | [Ge][Bd] [Ac]>[GB] | [Ac][GB] [EG]2 | %10
w: |||||
 [DB][DF] [EG][DFA] | [Ac][GB] [GB]2 | [Ge][Bd] [Ac]>[GB] | [Ac][GB] G2 | FB cd | [DB]4 | Bc B>G | %17
w: |||||||
 [DF][CE] [CE]2 | [DF][FA] [FA]>[FA] | [EG][GB] [GB]2 | [Ge][Bd] [Ac]>[GB] | [Ac][GB] [EG]2 | %22
w: |||||
 [EB][EA] EF | E4 |] %24
w: ||
V:2
 [E,G,E][E,A,E] [E,G,E]>[E,B,E] | [B,,A,][C,G,] [C,G,]2 | [B,,B,][B,,B,] [B,,B,]>[B,,B,] | %3
 [E,B,][E,B,] [E,B,]2 | [E,E][E,E] [E,E]>E, | B,,C, C,2 | A,,A,, B,,B,, | E,4 | %8
 [E,B,][E,E] [E,E]>[E,E] | [E,E][E,E] [E,B,]2 | [B,,B,][B,,B,] [B,,B,]B,, | [E,E][E,E] [E,E]2 | %12
 [E,B,][E,E] [E,E]>[E,E] | [E,E][E,E] [E,B,E]2 | [F,B,D][F,B,D] [F,=A,E][F,A,F] | [B,,B,]4 | %16
 [E,G,E][E,A,E] [E,G,E]>[E,B,E] | [B,,A,][C,G,] [C,G,]2 | [B,,B,][B,,B,] [B,,B,]>[B,,B,] | %19
 [E,B,][D,B,] [E,B,]2 | [E,B,][E,E] [E,E]>[E,E] | [E,E][E,E] [E,B,]2 | %22
 [B,,G,][B,,B,] [B,,G,B,][B,,A,B,] | [E,G,B,]4 |] %24

